X:149
T:The Harlequin
B:Terry "Cuz" Teahan "Sliabh Luachra on Parade" 1980
Z:Patrick Cavanagh
M:4/4
L:1/8
R:Hornpipe
K:G
Bc | dBGd edBA | GFGA BGDG | BdGB BddB | cAAG A2Bc | 
dBGd edBA | GFGA BGDG | Bd G/B/d BGAc | B/A/G A/G/F G2 :| 
Bc | dgbg dgbg | dggb d/f/d bg | agab c'bc'd' | a/g/f g/f/e d2dc | 
BABc dBGB | efga gfed | cBcd ceBA | FAGF G2 :|| 

